src/4-icons/call.svg

<svg width="260" height="260" viewBox="0 0 260 260" fill="none" xmlns="http://www.w3.org/2000/svg">
<path d="M48.4635 194.116C49.9453 196.275 51.6881 198.433 53.6381 200.382C56.6027 203.294 60.5535 205.816 64.9481 208.025C69.3163 210.184 74.0481 211.925 78.4945 212.784C79.8199 213.044 81.1463 213.122 82.5499 213.122C85.1499 213.122 87.9835 212.784 90.9999 212.185C100.048 210.417 110.993 206.414 120.536 201.135C134.758 193.205 154.518 178.307 165.646 167.154C176.722 155.974 191.543 136.188 199.472 122.069C202.982 115.777 205.92 108.834 208.025 102.257C210.105 95.6536 211.405 89.5172 211.405 84.3436C211.405 82.9136 211.302 81.5354 211.042 80.1836C210.158 75.7636 208.416 71.0836 206.232 66.7418C204.047 62.4 201.526 58.4482 198.613 55.5354C196.013 52.9354 193.05 50.6736 190.163 48.9572C188.707 48.099 187.278 47.3708 185.847 46.799C184.391 46.2526 182.987 45.8108 181.167 45.7854C180.075 45.7854 179.217 45.9936 178.385 46.2272C176.955 46.6436 175.629 47.2672 174.225 48.0218C170.091 50.31 165.333 54.0018 161.017 58.2918C157.741 61.5672 154.829 65.13 152.619 68.4582C151.501 70.1218 150.591 71.7082 149.862 73.2682C149.499 74.0482 149.186 74.8282 148.952 75.66C148.719 76.4918 148.536 77.35 148.511 78.4418C148.536 80.2354 148.979 81.6654 149.525 83.1218C150.357 85.28 151.58 87.4118 153.087 89.5954C154.569 91.7536 156.337 93.9108 158.287 95.8608C162.162 99.7344 166.295 103.869 168.375 105.949C168.323 106.651 168.115 107.821 167.725 109.147C167.231 110.785 166.503 112.683 165.567 114.581C164.995 115.724 163.929 117.493 162.525 119.521C158.287 125.631 151.137 134.185 144.585 140.711C140.217 145.079 134.653 150.044 129.297 154.413C123.967 158.781 118.741 162.628 115.361 164.631C112.579 166.321 109.771 167.673 107.482 168.583C106.339 169.024 105.324 169.363 104.519 169.571C104.337 169.623 104.154 169.649 103.999 169.701C101.841 167.543 97.9153 163.617 94.2225 159.925C91.6489 157.377 88.7889 155.089 86.0325 153.295C84.6543 152.412 83.2771 151.657 81.9243 151.034C80.5461 150.435 79.2461 149.968 77.5043 149.837L77.0097 149.812C75.9179 149.812 75.0597 150.02 74.2543 150.254C72.8243 150.67 71.5507 151.294 70.1725 152.048C66.0907 154.336 61.3843 158.003 57.0425 162.318C53.6879 165.673 50.6725 169.313 48.3589 172.666C47.2143 174.356 46.2271 175.968 45.4735 177.528C45.0835 178.308 44.7717 179.088 44.5117 179.894C44.2517 180.725 44.0435 181.584 43.9917 182.65V182.625V182.91C44.0181 184.705 44.4335 186.108 44.9799 187.565C45.7863 189.775 46.9817 191.933 48.4645 194.116H48.4635ZM58.7863 176.046C60.3981 173.966 62.3481 171.756 64.3763 169.728C67.2109 166.92 70.3563 164.32 72.9817 162.578C74.2817 161.695 75.4771 161.018 76.3099 160.628C76.6217 160.472 76.8553 160.394 77.0645 160.316C77.3245 160.395 77.7145 160.551 78.1563 160.785C80.4445 161.876 84.1363 164.528 86.8927 167.285C91.4163 171.808 96.3573 176.749 97.8909 178.283C98.8527 179.245 99.9191 179.686 100.776 179.946C101.661 180.181 102.415 180.232 103.116 180.258C104.52 180.258 105.768 180.024 107.12 179.686C111.072 178.646 115.804 176.515 120.718 173.576C124.904 171.055 130.26 167.076 135.876 162.475C141.466 157.898 147.238 152.75 151.945 148.07C156.65 143.365 161.486 137.904 165.595 132.782C167.649 130.207 169.52 127.738 171.08 125.475C172.665 123.187 173.94 121.134 174.902 119.262C176.098 116.844 177.06 114.426 177.736 112.138C178.413 109.825 178.828 107.718 178.828 105.586C178.828 104.702 178.75 103.818 178.49 102.805C178.23 101.816 177.735 100.646 176.645 99.5292C175.136 98.021 170.196 93.081 165.673 88.5574C163.749 86.6338 161.876 84.2156 160.629 82.1356C160.006 81.0956 159.511 80.1338 159.251 79.4056C159.121 79.041 159.016 78.7556 158.991 78.6002C159.095 78.262 159.381 77.5084 159.901 76.6249C161.461 73.7131 164.789 69.3449 168.429 65.7049C171.186 62.9231 174.357 60.3495 177.009 58.6067C178.335 57.7231 179.531 57.0466 180.389 56.6566C180.806 56.4749 181.117 56.3449 181.299 56.2931C181.534 56.3449 182.001 56.5013 182.547 56.7349C184.862 57.7231 188.606 60.2449 191.309 62.9749C192.947 64.5866 195.157 67.8366 196.951 71.4766C198.771 75.0902 200.227 79.1466 200.851 82.2931C200.955 82.7613 201.033 83.5149 201.007 84.4249C201.033 87.7784 199.993 93.2913 198.096 99.1931C196.224 105.095 193.519 111.491 190.374 117.081C183.172 130.003 168.352 149.789 158.264 159.903C148.228 170.043 128.467 184.941 115.494 192.118C109.852 195.263 103.404 197.968 97.4237 199.866C94.4337 200.802 91.5737 201.556 89.0255 202.049C86.4773 202.543 84.2155 202.778 82.5519 202.778C81.6673 202.778 80.9401 202.699 80.4719 202.621H80.4465C77.2747 202.023 73.2183 200.567 69.5519 198.747C65.9119 196.952 62.6101 194.717 60.9983 193.078C59.0737 191.155 57.2537 188.788 56.033 186.708C55.4094 185.668 54.9412 184.707 54.6812 184.005C54.5512 183.641 54.4476 183.355 54.4212 183.173C54.5247 182.888 54.733 182.315 55.0976 181.638C55.8512 180.104 57.1776 178.128 58.7894 176.048L58.7863 176.046Z" fill="black"/>
</svg>

<svg width="260" height="260" fill="none" xmlns="http://www.w3.org/2000/svg"><path d="M48.464 194.116c1.481 2.159 3.224 4.317 5.174 6.266 2.965 2.912 6.916 5.434 11.31 7.643 4.368 2.159 9.1 3.9 13.547 4.759 1.325.26 2.651.338 4.055.338 2.6 0 5.434-.338 8.45-.937 9.048-1.768 19.993-5.771 29.536-11.05 14.222-7.93 33.982-22.828 45.11-33.981 11.076-11.18 25.897-30.966 33.826-45.085 3.51-6.292 6.448-13.235 8.553-19.812 2.08-6.603 3.38-12.74 3.38-17.913 0-1.43-.103-2.809-.363-4.16-.884-4.42-2.626-9.1-4.81-13.442-2.185-4.342-4.706-8.294-7.619-11.207a43.902 43.902 0 0 0-8.45-6.578c-1.456-.858-2.885-1.586-4.316-2.158-1.456-.546-2.86-.988-4.68-1.014-1.092 0-1.95.209-2.782.442-1.43.417-2.756 1.04-4.16 1.795-4.134 2.288-8.892 5.98-13.208 10.27-3.276 3.275-6.188 6.838-8.398 10.166-1.118 1.664-2.028 3.25-2.757 4.81-.363.78-.676 1.56-.91 2.392-.233.832-.416 1.69-.441 2.782.025 1.793.468 3.223 1.014 4.68.832 2.158 2.055 4.29 3.562 6.473a44.901 44.901 0 0 0 5.2 6.266c3.875 3.873 8.008 8.008 10.088 10.088-.052.702-.26 1.872-.65 3.198a36.156 36.156 0 0 1-2.158 5.434c-.572 1.143-1.638 2.912-3.042 4.94-4.238 6.11-11.388 14.664-17.94 21.19-4.368 4.368-9.932 9.333-15.288 13.702-5.33 4.368-10.556 8.215-13.936 10.218-2.782 1.69-5.59 3.042-7.879 3.952-1.143.441-2.158.78-2.963.988-.182.052-.365.078-.52.13l-9.776-9.776c-2.574-2.548-5.434-4.836-8.19-6.63a34.03 34.03 0 0 0-4.109-2.261c-1.378-.599-2.678-1.066-4.42-1.197l-.494-.025c-1.092 0-1.95.208-2.756.442-1.43.416-2.703 1.04-4.082 1.794-4.081 2.288-8.788 5.955-13.13 10.27-3.354 3.355-6.37 6.995-8.683 10.348-1.145 1.69-2.132 3.302-2.886 4.862-.39.78-.701 1.56-.961 2.366-.26.831-.468 1.69-.52 2.756v-.025.285c.026 1.795.442 3.198.988 4.655.806 2.21 2.002 4.368 3.485 6.551h-.002Zm10.322-18.07a68.532 68.532 0 0 1 5.59-6.318c2.835-2.808 5.98-5.408 8.606-7.15 1.3-.883 2.495-1.56 3.328-1.95.312-.156.545-.234.754-.312.26.079.65.235 1.092.469 2.288 1.091 5.98 3.743 8.737 6.5l10.998 10.998c.962.962 2.028 1.403 2.885 1.663.885.235 1.639.286 2.34.312 1.404 0 2.652-.234 4.004-.572 3.952-1.04 8.684-3.171 13.598-6.11 4.186-2.521 9.542-6.5 15.158-11.101 5.59-4.577 11.362-9.725 16.069-14.405 4.705-4.705 9.541-10.166 13.65-15.288 2.054-2.575 3.925-5.044 5.485-7.307 1.585-2.288 2.86-4.341 3.822-6.213 1.196-2.418 2.158-4.836 2.834-7.124.677-2.313 1.092-4.42 1.092-6.552 0-.884-.078-1.768-.338-2.781a7.184 7.184 0 0 0-1.845-3.276l-10.972-10.972c-1.924-1.923-3.797-4.341-5.044-6.421-.623-1.04-1.118-2.002-1.378-2.73-.13-.365-.235-.65-.26-.806.104-.338.39-1.092.91-1.975 1.56-2.912 4.888-7.28 8.528-10.92 2.757-2.782 5.928-5.355 8.58-7.098 1.326-.884 2.522-1.56 3.38-1.95.417-.182.728-.312.91-.364.235.052.702.208 1.248.442 2.315.988 6.059 3.51 8.762 6.24 1.638 1.612 3.848 4.862 5.642 8.502 1.82 3.613 3.276 7.67 3.9 10.816.104.468.182 1.222.156 2.132.026 3.353-1.014 8.866-2.911 14.768-1.872 5.902-4.577 12.298-7.722 17.888-7.202 12.922-22.022 32.708-32.11 42.822-10.036 10.14-29.797 25.038-42.77 32.215-5.642 3.145-12.09 5.85-18.07 7.748-2.99.936-5.85 1.69-8.399 2.183-2.548.494-4.81.729-6.473.729-.885 0-1.612-.079-2.08-.157h-.025c-3.172-.598-7.229-2.054-10.895-3.874-3.64-1.795-6.942-4.03-8.554-5.669-1.924-1.923-3.744-4.29-4.965-6.37-.624-1.04-1.092-2.001-1.352-2.703-.13-.364-.233-.65-.26-.832.104-.285.312-.858.677-1.535.753-1.534 2.08-3.51 3.691-5.59l-.003-.002Z" fill="#000"/></svg>
